X:1
T:March to the Rendezvous
T:March to the Rendezvous
T:Alexander Walker
C:Alexander Walker
L:1/8
M:4/4
K:G
V:1 treble 
V:1
 B>G | G2 B,>C D2 B,>C | D>B,G>B, D2 E>F | G2 B,>C D>B,G,>B, | [A,E]2 [A,E]2 [A,E]2 B>G | %5
 G2 B,>C D2 B,>C | D>B,G>B, D2 E>F | G>ed<g e>cA>F | [B,G]2 G2 G2 || d | g>ba>g g>fe>d | %11
 e>fg>B{B} c>BA>G |{A} c>ed>B c>BA>G | B2 A2 A2 B>c | g>ba>g g>fe>d | e>fg>B{B} (cB)AG | %16
 c<ed<g e>cA>F | G2 [B,G]2 [B,G]2 d2 | g>ba>g g>fe>d | e>fg>B{B} c>BA>G |{A} c>ed>B c>BA>G | %21
 B2 A2 A2 B>A | G>AB>G A>Bc>A | Bdce d2 c2 | B>GA>F G>DE>C |{C} B,2 G,2 G,2 || %26

